X: 2
T: The Lochaber Badger
R: reel
M: 4/4
L: 1/8
K: Bmin
|:f2 ed ed B2|B2 AB dABd|f2 ed ed B2|BAdA B3 z|f2 ed ed B2|B2 AB dABd|f2 ed ed B2|BAdA B3 z|||:B2 AB dB e2|e2 ed fa f2|f2 ed ed B2|BAdA B3 z|B2 AB dB e2|e2 ed fa f2|f2 ed ed B2|BAdA B3 z||


Tune 5758	Setting 17707

